src/resources/assets/person.svg

<svg xmlns="http://www.w3.org/2000/svg" width="16" height="16"><path d="M 6.78125 9.296875 C 6.558594 9.566406 6.414062 9.90625 6.378906 10.273438 L 2.960938 10.273438 C 2.691406 10.273438 2.476562 10.492188 2.476562 10.761719 L 2.476562 11.136719 C 2.476562 11.484375 2.597656 11.820312 2.824219 12.085938 C 3.589844 12.980469 4.765625 13.464844 6.378906 13.519531 C 6.414062 13.890625 6.558594 14.226562 6.78125 14.5 L 6.699219 14.5 C 4.652344 14.5 3.101562 13.910156 2.085938 12.71875 C 1.707031 12.277344 1.5 11.714844 1.5 11.136719 L 1.5 10.761719 C 1.5 9.988281 2.101562 9.351562 2.863281 9.300781 L 2.960938 9.296875 Z M 9.785156 7.671875 L 11.738281 7.671875 C 12.15625 7.671875 12.503906 7.992188 12.546875 8.402344 L 12.550781 8.484375 L 12.550781 9.296875 L 13.363281 9.296875 C 13.992188 9.296875 14.5 9.808594 14.5 10.4375 L 14.5 13.363281 C 14.5 13.988281 13.992188 14.5 13.363281 14.5 L 8.160156 14.5 C 7.53125 14.5 7.023438 13.988281 7.023438 13.363281 L 7.023438 10.4375 C 7.023438 9.808594 7.53125 9.296875 8.160156 9.296875 L 8.972656 9.296875 L 8.972656 8.484375 C 8.972656 8.066406 9.292969 7.71875 9.703125 7.675781 L 9.785156 7.671875 L 11.738281 7.671875 Z M 13.363281 10.273438 L 8.160156 10.273438 C 8.070312 10.273438 8 10.347656 8 10.4375 L 8 13.363281 C 8 13.453125 8.070312 13.523438 8.160156 13.523438 L 13.363281 13.523438 C 13.453125 13.523438 13.523438 13.453125 13.523438 13.363281 L 13.523438 10.4375 C 13.523438 10.347656 13.453125 10.273438 13.363281 10.273438 Z M 11.574219 8.648438 L 9.949219 8.648438 L 9.949219 9.296875 L 11.574219 9.296875 Z M 6.699219 1.5 C 8.492188 1.5 9.949219 2.957031 9.949219 4.75 C 9.949219 6.546875 8.492188 8 6.699219 8 C 4.902344 8 3.449219 6.546875 3.449219 4.75 C 3.449219 2.957031 4.902344 1.5 6.699219 1.5 Z M 6.699219 2.476562 C 5.441406 2.476562 4.421875 3.492188 4.421875 4.75 C 4.421875 6.007812 5.441406 7.027344 6.699219 7.027344 C 7.957031 7.027344 8.972656 6.007812 8.972656 4.75 C 8.972656 3.492188 7.957031 2.476562 6.699219 2.476562 Z M 6.699219 2.476562" fill="#ddd"/></svg>

<svg xmlns="http://www.w3.org/2000/svg" width="16" height="16"><path d="M6.781 9.297c-.222.27-.367.61-.402.976H2.96a.485.485 0 00-.484.489v.375c0 .347.12.683.347.949.766.894 1.942 1.379 3.555 1.434.035.37.18.707.402.98H6.7c-2.047 0-3.597-.59-4.613-1.781a2.43 2.43 0 01-.586-1.582v-.375c0-.774.602-1.41 1.363-1.461l.098-.004zm3.004-1.625h1.953c.418 0 .766.32.809.73l.004.082v.813h.812c.63 0 1.137.512 1.137 1.14v2.926c0 .625-.508 1.137-1.137 1.137H8.16a1.138 1.138 0 01-1.137-1.137v-2.925c0-.63.508-1.141 1.137-1.141h.813v-.813c0-.418.32-.765.73-.808l.082-.004h1.953zm3.578 2.601H8.16c-.09 0-.16.075-.16.165v2.925c0 .09.07.16.16.16h5.203c.09 0 .16-.07.16-.16v-2.925c0-.09-.07-.165-.16-.165zm-1.789-1.625H9.95v.649h1.625zM6.7 1.5a3.25 3.25 0 110 6.5 3.25 3.25 0 010-6.5zm0 .977A2.274 2.274 0 004.422 4.75a2.277 2.277 0 002.277 2.277A2.274 2.274 0 008.973 4.75a2.27 2.27 0 00-2.274-2.273zm0 0" fill="#ddd"/></svg>
